docs/img/icons/phone.svg

<svg width="20" height="22" viewBox="0 0 20 22" fill="none" xmlns="http://www.w3.org/2000/svg">
<path d="M12.3194 12.9739L12.3195 12.974L12.3248 12.9685C12.4093 12.8819 12.5118 12.8201 12.6223 12.7873C12.7326 12.7545 12.8487 12.7514 12.9604 12.7779C12.9604 12.7779 12.9605 12.7779 12.9605 12.778L18.959 14.2163C18.9591 14.2163 18.9593 14.2163 18.9594 14.2164C19.0727 14.2441 19.179 14.3019 19.2677 14.386C19.3566 14.4703 19.4249 14.5782 19.4648 14.7004L19.75 14.6074L19.4658 14.7036C19.5447 14.9366 19.6042 15.1765 19.6436 15.4205C19.6814 15.6689 19.7003 15.9201 19.7 16.1717V16.1721C19.7 16.769 19.588 17.3598 19.3708 17.9106C19.1535 18.4614 18.8355 18.9609 18.4354 19.381C18.0354 19.801 17.5613 20.1334 17.0407 20.3599C16.5202 20.5863 15.9629 20.7027 15.4004 20.7027C11.402 20.6973 7.56566 19.027 4.73365 16.053C1.90122 13.0786 0.305249 9.04294 0.3 4.83045C0.300044 3.62431 0.756462 2.47036 1.56456 1.62174C2.37109 0.774779 3.46135 0.301339 4.59519 0.300003C4.83216 0.307912 5.0679 0.340218 5.29902 0.396497L5.31137 0.399504L5.32393 0.401456C5.54891 0.436416 5.7702 0.494498 5.98464 0.57493L5.98463 0.574955L5.98843 0.576322C6.09908 0.616131 6.19993 0.685452 6.28065 0.779352C6.36145 0.873336 6.41918 0.988647 6.44706 1.11486L7.81676 7.34076C7.8168 7.34095 7.81684 7.34114 7.81688 7.34133C7.8436 7.46553 7.8403 7.5949 7.80737 7.71728C7.77439 7.83982 7.71308 7.95031 7.63037 8.03921L7.62429 8.04573L7.61862 8.05261C7.58738 8.09047 7.57725 8.1014 7.56103 8.11496C7.54127 8.13148 7.50517 8.1573 7.42116 8.20637C7.2695 8.29498 7.00618 8.43427 6.4988 8.70267C6.43622 8.73577 6.36993 8.77084 6.29968 8.80801L6.05424 8.9379L6.16481 9.19263C7.17738 11.5254 8.95562 13.4023 11.1793 14.4784L11.4461 14.6075L11.5784 14.3423C11.9051 13.6879 12.0663 13.3674 12.1636 13.1922C12.2116 13.1056 12.2382 13.0652 12.2562 13.0415C12.2721 13.0206 12.2844 13.0081 12.3194 12.9739ZM1.7 4.82953L1.7 4.83084C1.7027 8.63695 3.14355 12.2891 5.71044 14.9847C8.2778 17.6808 11.7623 19.1996 15.3998 19.2024L15.4 18.9024L15.4012 19.2024C16.174 19.1993 16.9111 18.8755 17.4528 18.3066C17.9941 17.7381 18.2971 16.9711 18.3 16.1732V16.1721V15.8255V15.5891L18.0701 15.5339L13.4401 14.4207L13.2087 14.3651L13.1019 14.5778L12.8119 15.1554L12.8119 15.1554L12.8109 15.1574C12.5768 15.6326 12.4054 15.9693 12.208 16.1596C12.1187 16.2457 12.0375 16.2872 11.9548 16.301C11.8699 16.3152 11.7507 16.3057 11.5774 16.232L11.5775 16.2318L11.5656 16.2273C9.95181 15.6207 8.48575 14.6438 7.27442 13.3664C6.06304 12.089 5.13693 10.5433 4.56434 8.84101L4.56006 8.82826L4.55464 8.81595C4.48231 8.65136 4.47271 8.53387 4.48741 8.44639C4.50212 8.35889 4.5463 8.27073 4.63457 8.17355C4.82583 7.96298 5.15819 7.77509 5.604 7.53012C5.60416 7.53003 5.60432 7.52995 5.60447 7.52986L6.14346 7.23637L6.34134 7.12863L6.29302 6.90856L5.22302 2.03593L5.17127 1.80027H4.93L4.6 1.80027L4.59879 1.80027C3.82604 1.80338 3.08893 2.12724 2.54718 2.69615C2.00589 3.26457 1.70291 4.03166 1.7 4.82953Z" fill="#FF8B00" stroke="#1B1B1B" stroke-width="0.6"/>
</svg>

<svg width="20" height="22" fill="none" xmlns="http://www.w3.org/2000/svg"><path d="M12.32 12.974h0l.005-.005a.691.691 0 01.297-.182.654.654 0 01.338-.009l5.999 1.438s0 0 0 0a.69.69 0 01.309.17.756.756 0 01.197.314l.285-.093-.284.097a4.445 4.445 0 01.234 1.468v0a4.73 4.73 0 01-.33 1.739 4.554 4.554 0 01-.935 1.47c-.4.42-.874.752-1.394.979a4.11 4.11 0 01-1.64.343c-3.999-.006-7.835-1.676-10.667-4.65C1.9 13.079.305 9.043.3 4.83a4.65 4.65 0 011.265-3.208A4.192 4.192 0 014.595.3c.237.008.473.04.704.096L5.311.4h.013c.225.035.446.093.66.174h0l.004.001a.71.71 0 01.293.203c.08.094.138.21.166.336l1.37 6.226s0 0 0 0a.801.801 0 01-.01.376.764.764 0 01-.177.322l-.006.007-.005.007a.414.414 0 01-.058.062c-.02.016-.056.042-.14.091-.152.089-.415.228-.922.497l-.2.105-.245.13.11.255c1.013 2.332 2.792 4.21 5.015 5.285l.267.13.132-.266c.327-.654.488-.975.586-1.15a1.28 1.28 0 01.092-.15.567.567 0 01.063-.068zM1.7 4.83h0c.003 3.807 1.444 7.46 4.01 10.155 2.568 2.696 6.052 4.215 9.69 4.217v-.3l.001.3a2.849 2.849 0 002.052-.895 3.112 3.112 0 00.847-2.134v0-.584l-.23-.055-4.63-1.113-.231-.056-.107.213-.29.577h0l-.001.002c-.234.476-.406.812-.603 1.003a.474.474 0 01-.253.141c-.085.014-.204.005-.378-.069h0l-.011-.005a11.493 11.493 0 01-4.292-2.86 12.246 12.246 0 01-2.71-4.526l-.004-.013-.005-.012a.65.65 0 01-.068-.37.538.538 0 01.148-.272c.19-.211.523-.399.969-.644 0 0 0 0 0 0l.54-.294.197-.107-.048-.22-1.07-4.873-.052-.236H4.6a2.849 2.849 0 00-2.052.896A3.112 3.112 0 001.7 4.83z" fill="#FF8B00" stroke="#1B1B1B" stroke-width=".6"/></svg>
